X: 2319
T: Bag Of Potatoes, The
R: reel
M: 4/4
K: Gmajor
|:Bdd2 =ceed|BddB ABGA|Bdd2 =ceed|gabg abag:|
|:gabg eaaf|gbag efede|gbag eaaf|gedb abag:|

